X:1
T:Title
%%score 1 ( 2 3 )
L:1/8
Q:1/4=112
M:4/4
K:F
V:1 treble nm="Grand Piano, Staff 1"
V:2 bass nm="Choir Pad, Ferniehurst, SM"
V:3 bass 
V:1
 F2 [FG]2 [FA]2 [FB]2 | [GB]2 [FA]6 | A2 [GA]2 [FA]2 [Ec]2 | [D=B]2 [CA]6 | %4
w: Generated~by~NoteWorthy~Composer * * *||||
 [EA]2 [EG]2 [CE]2 [CF]2 | [Fd]2 [Gc]2 [EB]2 [FA]2 | [_EA]2 [DA]2 [DG]2 F2 | [EG]2 F6- | %8
w: ||||
 F2 z2 z4 |] %9
w: |
V:2
 [F,A,]2 [F,B,]2 [F,C]2 [F,D]2 | [F,E]2 [F,F]6 | [F,C]2 [F,^C]2 [E,D]2 [E,A,]2 | A,_A, =A,6 | %4
 [A,C]2 [B,C]2 [G,B,]2 A,2 | [D,A,]2 [E,C]2 [G,C]2 [F,C]2 | [^F,D]2 [G,C]2 [B,,B,]2 [C,A,]2 | %7
 [C,B,]2 [F,A,]6- | [F,A,]2 z2 z4 |] %9
V:3
 x8 | x8 | x8 | E,2 z2 z4 | x8 | x8 | x8 | x8 | x8 |] %9

